X:1
T:Old Grumbler
M:6/8
L:1/8
K:C
 G| G2 G c2 G|G-A G E2 G| GA_B AGE| C3- C2 C| D2 C F2 F| GGG G2 G/2G/2|\
 G2 GF-E D| C3 G2 G/2G/2| G2 GF-E D| C3- C2||

